src/assets/svg/ic_generic_disable.svg

<svg xmlns="http://www.w3.org/2000/svg" width="16" height="16">
    <path d="M15.597.953a.5.5 0 00-.671-.029L2.203 13.64a.5.5 0 00.707.707l2.633-2.634L3.672 15h9.173L9.004 8.253l.756-.756.86 1.489c.044.002.086.014.13.014a4 4 0 003.478-5.971l1.369-1.369a.5.5 0 000-.707zM6.406 7.469A4.963 4.963 0 015.851 4H1v7h1.875l3.531-3.531zm.999-.999l.881-1.525.236.409 3.955-3.955A3.952 3.952 0 0010.75 1c-1.477 0-2.752.81-3.445 2a3.921 3.921 0 00-.413 1 3.926 3.926 0 00-.142 1c0 .619.155 1.196.407 1.718l.248-.248z" fill="#3d464d"/>
</svg>

<?xml version="1.0" encoding="iso-8859-1"?>
<!-- Generator: Adobe Illustrator 16.0.4, SVG Export Plug-In . SVG Version: 6.00 Build 0)  -->
<!DOCTYPE svg PUBLIC "-//W3C//DTD SVG 1.1//EN" "http://www.w3.org/Graphics/SVG/1.1/DTD/svg11.dtd">
<svg version="1.1" id="artwork" xmlns="http://www.w3.org/2000/svg" xmlns:xlink="http://www.w3.org/1999/xlink" x="0px" y="0px"
	 width="16px" height="16px" viewBox="0 0 16 16" style="enable-background:new 0 0 16 16;" xml:space="preserve">
<g>
	<path style="fill:#3D464D;" d="M15.597,0.953c-0.184-0.184-0.475-0.191-0.671-0.029L2.203,13.64c-0.194,0.195-0.194,0.512,0,0.707
		c0.195,0.195,0.513,0.195,0.707,0l2.633-2.634L3.672,15h9.173L9.004,8.253L9.76,7.497l0.86,1.489C10.664,8.988,10.706,9,10.75,9
		c2.209,0,4-1.791,4-4c0-0.718-0.191-1.389-0.522-1.971l1.369-1.369C15.792,1.465,15.792,1.148,15.597,0.953z"/>
	<path style="fill:#3D464D;" d="M6.406,7.469C5.99,6.74,5.75,5.899,5.75,5c0-0.343,0.035-0.677,0.101-1H1v7h1.875L6.406,7.469z"/>
	<path style="fill:#3D464D;" d="M7.405,6.47l0.881-1.525l0.236,0.409l3.955-3.955C11.954,1.146,11.37,1,10.75,1
		C9.273,1,7.998,1.81,7.305,3C7.124,3.311,6.983,3.645,6.892,4C6.808,4.321,6.75,4.652,6.75,5c0,0.619,0.155,1.196,0.407,1.718
		L7.405,6.47z"/>
</g>
</svg>
